_includes/icons/color-up-squared.svg

<svg fill="#666" height="50" viewBox="0 0 48 48" width="50" xmlns="http://www.w3.org/2000/svg"><path d="m6 38c0 2.210938 1.789063 4 4 4h28c2.210938 0 4-1.789062 4-4v-28c0-2.210937-1.789062-4-4-4h-28c-2.210937 0-4 1.789063-4 4z" fill="#9c27b0"/><path d="m35.0625 26.984375-3.085937 3.078125-7.976563-7.914062-7.976562 7.914062-3.085938-3.078125 11.0625-10.984375z" fill="#fff"/></svg>

<svg xmlns="http://www.w3.org/2000/svg" viewBox="0 0 48 48" width="50" height="50" fill="#666"><path d="M 6 38 C 6 40.210938 7.789063 42 10 42 L 38 42 C 40.210938 42 42 40.210938 42 38 L 42 10 C 42 7.789063 40.210938 6 38 6 L 10 6 C 7.789063 6 6 7.789063 6 10 Z" fill="#9c27b0"/><path d="M 35.0625 26.984375 L 31.976563 30.0625 L 24 22.148438 L 16.023438 30.0625 L 12.9375 26.984375 L 24 16 Z" fill="#fff"/></svg>
